X:3459
T:Vals i B
C:Jörgen Olsson
R:Vals
O:Västra Eneby, Östergötland
Q:160
Z:Jörgen Olsson [[jorgen@notvallens.se]]
H:Sommarvals 2015.
M:3/4
L:1/8
K:B
|:"B" d3 FBc|d3 FBd|"C#m" e4d2|"F#" c6 |
"F#7" e3 FAc|e3 FAc |"B" f4e2|"B7"d6 |
"E" g3 Bef|g3 bag |"B" f3 BBc|d3 fed |
"F#7" c3 ^Bcd|e3 Adc |"B" B3 cBA| B6 :|] 
(:musicend:)
[[!ackord]]
(:music:)
